X: 107
T: Cantantibus organis – Andante
C: Franciszek Walczyński
%%abc-version 2.0
%%abcx-abcm2ps-target-version 5.9.1 (29 Sep 2008)
%%abc-creator hum2abc beta
%%abcx-conversion-date 2021/10/04 07:38:39
%%abc-edited-by Kamil Watkowski
%%abcx-initial-encoding-date 2021-08-09
%%humdrum-veritas 3044362158
%%humdrum-veritas-data 658585454
%%linebreak <none>
%%barnumbers 0
L: 1/8
M: 2/4
N: Derived from pl-kozmzk--mzk-m-346--008_walczynski-franciszek--cantantibus-organis-andante.krn
%%staves {1 2}
V: 1 clef=treble
V: 2 clef=bass
K: G
[V:1] z4 & z4 | 
[V:2] E,G,.E,.D, | 
[V:1] z4 & z4 | 
[V:2] A,C.A,.G, & C,3^C, | 
[V:1] z4 & z4 | 
[V:2] F,CB,A, & D,2^D,2 | 
[V:1] z4 & EG .E.D | 
[V:2] G,3^G, & E,B,,C,B,, | 
[V:1] Ac.A.G- & C2E2 | 
[V:2] A,3_B, & C,2C,^C, | 
[V:1] GF/E/A2 & D3C | 
[V:2] =B,A,/G,/F,2 & D,4 | 
[V:1] G4 & B,4 | 
[V:2] G,F,/E,/D,2 & G,,4- | 
[V:1] G4 & C3B, | 
[V:2] E,G,.E,.D, & G,,4- | 
[V:1] EG.E.=D & _B,3C | 
[V:2] ^C,2G,F, & G,,4- | 
[V:1] D2!fermata!G2 & =B,4 | 
[V:2] G,D,-!fermata!D,2 & G,,4 | 
[V:1] z4 & z4 | 
[V:2] A,C.A,.G, & z4 | 
[V:1] Ac.A.G & z4 | 
[V:2] F,3E, & z4 | 
[V:1] F3E & A,C.A,.G, | 
[V:2] D,3^C, & z4 | 
[V:1] D4 & F,3B, | 
[V:2] D,4 & A,,C,.A,,.G,, | 
[V:1] E4- & C4 | 
[V:2] G,2A,2 & C,,2A,,2 | 
[V:1] !fermata!E4 & B,4 | 
[V:2] G,4 & !fermata!E,,4 | 
[V:1] eg.e.d & z4 | 
[V:2] z4 & z4 | 
[V:1] Bd.B.A & z2z C | 
[V:2] z2z F, & x2x D, | 
[V:1] G4 & B,4 | 
[V:2] G,2D,2 & G,,4- | 
[V:1] G4- & C3B, | 
[V:2] E,G,E,D, & G,,4- | 
[V:1] G4- & G,B,DC | 
[V:2] B,,D,B,,A,, & G,,4- | 
[V:1] !fermata!G4 & B,4 |]  
[V:2] G,,4 & !fermata!G,,4 |]  


